X:1
T:Gdańsk, CMD
T:Gdańsk, CMD
T:James McGranahan, 1891
T:Public Domain Courtesy of the Cyber Hymnal™
C:James McGranahan, 1891
Z:Public Domain
Z:Courtesy of the Cyber Hymnal™
%%score ( 1 2 ) ( 3 4 )
L:1/8
Q:1/4=108
M:4/4
K:G
V:1 treble 
V:2 treble 
V:3 bass 
V:4 bass 
V:1
 [B,D]2 | [B,G]2 [DB]2 [CA]2 [CG]2 | [CF]2 [CE]2 [B,D]2 [DB]2 | [Fc]3 [Fc] G2 [DA]2 | [DB]6 D2 | %5
 [DG]2 [GB]2 [FA]2 [EG]2 | [DF]2 [CE]2 [B,D]2 [DB]2 | [Fc]3 [Fc] [DF]2 [DA]2 | [DG]6 [GB]2 | %9
 [Gd]3 [Ge] [Gd]2 [GB]2 | [Fc]3 [Fd] [Fc]2 [FA]2 | [GB]2 [DG]2 [Gd]2 [GB]2 | [FA]6 D2 | %13
 [DG]2 [GB]2 [FA]2 [EG]2 | [DF]2 [CE]2 [B,D]2 [DB]2 | [Fc]3 [Fc] [DF]2 [DA]2 | [DG]6 |] %17
V:2
 x2 | x8 | x8 | x4 G2 x2 | x6 D2 | x8 | x8 | x8 | x8 | x8 | x8 | x8 | x6 D2 | x8 | x8 | x8 | x6 |] %17
V:3
 [G,,D,]2 | [G,,D,]2 [G,,G,]2 [D,F,]2 [E,G,]2 | [C,G,]2 [C,G,]2 [G,,G,]2 G,2 | %3
 [D,A,]3 [D,A,] [D,B,]2 [D,F,]2 | G,6 [G,B,]2 | [G,B,]2 [G,D]2 [D,D]2 [E,B,]2 | %6
 [B,,G,]2 [C,G,]2 [G,,G,]2 G,2 | [D,A,]3 [D,A,] [D,A,]2 [D,C]2 | [G,,B,]6 [G,D]2 | %9
 [G,B,]3 [G,C] [G,B,]2 G,2 | [D,A,]3 [D,B,] [D,A,]2 [D,D]2 | [G,D]2 [G,B,]2 [B,D]2 [G,D]2 | %12
 [D,D]6 [F,C]2 | [G,B,]2 [G,D]2 [D,D]2 [E,G,]2 | [B,,G,]2 [C,G,]2 [G,,G,]2 G,2 | %15
 [D,A,]3 [D,A,] [D,A,]2 [D,C]2 | [G,,B,]6 |] %17
V:4
 x2 | x8 | x6 G,2 | x8 | G,6 x2 | x8 | x6 G,2 | x8 | x8 | x6 G,2 | x8 | x8 | x8 | x8 | x6 G,2 | %15
 x8 | x6 |] %17

